src/icons/solid/ai/artificial-intelligence.svg

<svg width="24" height="24" viewBox="0 0 24 24" fill="none" xmlns="http://www.w3.org/2000/svg">
<g clip-path="url(#clip0_1_3613)">
<path d="M18 13C18.4338 13 18.8103 13.2765 18.9473 13.6797L19.4727 15.2578C19.6667 15.8568 20.1344 16.3295 20.7393 16.5254L22.3154 17.0557C22.7261 17.194 23 17.5739 23 18C23 18.4261 22.7261 18.8175 22.3154 18.9443L20.7393 19.4746C20.1458 19.6705 19.6781 20.1432 19.4727 20.7422L18.9473 22.3203C18.8103 22.7235 18.4338 23 18 23C17.5662 23 17.1897 22.7235 17.0527 22.3203L16.5273 20.7422C16.3333 20.1432 15.8656 19.6705 15.2607 19.4746L13.6846 18.9443C13.2739 18.806 13 18.4261 13 18C13 17.5739 13.2739 17.1825 13.6846 17.0557L15.2607 16.5254C15.8542 16.3295 16.3219 15.8568 16.5273 15.2578L17.0527 13.6797C17.1897 13.2765 17.5662 13 18 13Z" fill="#1D1B20"/>
<path d="M10 1C10.4035 1 10.7581 1.27119 10.8682 1.65332L11.8467 5.06836C12.2747 6.56014 13.4364 7.73158 14.9404 8.16309L18.3516 9.13672C18.7429 9.24768 19 9.60548 19 10C19 10.3945 18.7306 10.7523 18.3516 10.8633L14.9404 11.8369C13.4486 12.2684 12.2747 13.4399 11.8467 14.9316L10.8682 18.3467C10.7581 18.7288 10.4035 19 10 19C9.59651 19 9.24193 18.7288 9.13184 18.3467L8.15332 14.9316C7.72533 13.4399 6.56365 12.2684 5.05957 11.8369L1.64844 10.8633C1.25713 10.7523 1 10.3945 1 10C1 9.60548 1.26936 9.24768 1.64844 9.13672L5.05957 8.16309C6.55142 7.73158 7.72533 6.56014 8.15332 5.06836L9.13184 1.65332C9.24193 1.27119 9.59651 1 10 1Z" fill="#1D1B20"/>
</g>
<defs>
<clipPath id="clip0_1_3613">
<rect width="24" height="24" fill="white"/>
</clipPath>
</defs>
</svg>

<svg xmlns="http://www.w3.org/2000/svg" width="24" height="24" fill="none" viewBox="0 0 24 24"><g fill="currentColor" clip-path="url(#a)"><path d="M18 13c.434 0 .81.277.947.68l.526 1.578a1.97 1.97 0 0 0 1.266 1.267l1.576.53A1 1 0 0 1 23 18a.99.99 0 0 1-.685.944l-1.576.53a2.02 2.02 0 0 0-1.266 1.268l-.526 1.578a.999.999 0 0 1-1.894 0l-.526-1.578a1.97 1.97 0 0 0-1.266-1.267l-1.576-.53A1 1 0 0 1 13 18c0-.426.274-.817.685-.944l1.576-.53a2.02 2.02 0 0 0 1.266-1.268l.526-1.578A1 1 0 0 1 18 13M10 1c.403 0 .758.271.868.653l.979 3.415a4.51 4.51 0 0 0 3.093 3.095l3.412.974A.895.895 0 0 1 19 10a.91.91 0 0 1-.648.863l-3.412.974a4.53 4.53 0 0 0-3.093 3.095l-.979 3.415A.91.91 0 0 1 10 19a.91.91 0 0 1-.868-.653l-.979-3.415a4.51 4.51 0 0 0-3.093-3.095l-3.412-.974A.895.895 0 0 1 1 10a.91.91 0 0 1 .648-.863l3.412-.974a4.53 4.53 0 0 0 3.093-3.095l.979-3.415A.91.91 0 0 1 10 1"/></g><defs><clipPath id="a"><path fill="currentColor" d="M0 0h24v24H0z"/></clipPath></defs></svg>
